X:1
T:[ID 3-19b]
T:[ID 3-19b]
T:Bezeichnung standardisiert: Polonaise Polonoise 21.
T:Urheber unbekannt Erstbeleg: 1767 (Datum in der schriftlichen Quelle) Datum in der hier transkribierten schriftlichen Quelle: 1775
C:Urheber unbekannt
C:Erstbeleg: 1767 (Datum in der schriftlichen Quelle)
C:Datum in der hier transkribierten schriftlichen Quelle: 1775
L:1/8
M:3/4
K:D
V:1 treble 
V:1
 fd/f/ ec/e/ d2 | fd/f/ ec/e/ d2 | FB/A/ Gc/d/ eG | Fc/B/ Ad/e/ fA | GecA Fe | A/G/F/E/ F2 F2 :: %6
 F/E/D/E/ F/E/D/E/ FF | G2 ED/E/ F2 | F/E/D/E/ F/E/D/E/ FF | G2 ED/E/ F2 | ee/d/ dd/c/ c2 | %11
 ee/d/ d/c/ c2 | AF/E/ GecA | FG/E/ F2 F2 :| %14

